X: 964
T: Polonäs efter John Johansson
T: "En äkta bondpolska"
B: [[Notböcker/John Johanssons noter]] [[http://www.sormlandsmusikarkiv.se/noter/johansson_john/john_johansson.html|samling 2]], nr 51 (sida 15)
B: Jämför [[http://www.smus.se/earkiv/fmk/browselarge.php?lang=sw&katalogid=M+6&bildnr=00014|SMUS - katalog M6 bild 14]] nr 196 upptecknad av [[Personer/Johan Lundin]]. Uppges ha spelats av [[Personer/Gås-Anders]]
N: Se även [[Musik/1993|+]] och [[Musik/402|+]]
O: Södermanland
R: Polska
Z: Nils L
M: 3/4
L: 1/16
K: C
c2cG E2EC G,2G,C | E2EG c2ce g4 | a2fa g2eg fedc | B2Bc dcBA G4 |
c2cG E2EC G,2G,C | E2EG c2ce g4 | a2fa g2eg fedc | BcdB c4 C4 ::
egec egec egec | BdBG BdBG BdBG | AcAF AcAF AcAF | EGEC EGEC EGEC |
a2fa g2eg f2df | edcB c8 :|
(:musicend:)
(:music:)
